img/work/logo-xmarket.svg

<?xml version="1.0" encoding="UTF-8" standalone="no"?>
<svg width="125px" height="22px" viewBox="0 0 125 22" version="1.1" xmlns="http://www.w3.org/2000/svg" xmlns:xlink="http://www.w3.org/1999/xlink">
    <!-- Generator: Sketch 41 (35326) - http://www.bohemiancoding.com/sketch -->
    <title>Group 10</title>
    <desc>Created with Sketch.</desc>
    <defs></defs>
    <g id="Content-real" stroke="none" stroke-width="1" fill="none" fill-rule="evenodd">
        <g id="Work-Copy" transform="translate(-824.000000, -8897.000000)">
            <g id="Group-10" transform="translate(824.000000, 8897.000000)">
                <path d="M19.453125,5.87239583 L24.8958333,5.87239583 L24.8958333,8.09244792 C25.6788234,7.16622801 26.468963,6.50738043 27.266276,6.11588542 C28.0635891,5.7243904 29.025602,5.52864583 30.1523438,5.52864583 C31.3650234,5.52864583 32.3246492,5.74348743 33.03125,6.17317708 C33.7378508,6.60286673 34.315536,7.24261728 34.7643229,8.09244792 C35.6809942,7.0993874 36.5164893,6.42382992 37.2708333,6.06575521 C38.0251774,5.7076805 38.9561577,5.52864583 40.0638021,5.52864583 C41.6966227,5.52864583 42.9713496,6.013233 43.8880208,6.98242188 C44.8046921,7.95161075 45.2630208,9.4674376 45.2630208,11.5299479 L45.2630208,21.0833333 L39.4192708,21.0833333 L39.4192708,12.4179688 C39.4192708,11.7304653 39.2855916,11.2196197 39.0182292,10.8854167 C38.6267342,10.3602404 38.1397599,10.0976563 37.5572917,10.0976563 C36.8697882,10.0976563 36.3159743,10.3459177 35.8958333,10.8424479 C35.4756923,11.3389782 35.265625,12.1362792 35.265625,13.234375 L35.265625,21.0833333 L29.421875,21.0833333 L29.421875,12.7044271 C29.421875,12.036021 29.3836809,11.5824665 29.3072917,11.34375 C29.1831591,10.9618036 28.9683175,10.653864 28.6627604,10.4199219 C28.3572033,10.1859797 27.999134,10.0690104 27.5885417,10.0690104 C26.9201355,10.0690104 26.3710959,10.3220461 25.9414062,10.828125 C25.5117166,11.3342039 25.296875,12.1649248 25.296875,13.3203125 L25.296875,21.0833333 L19.453125,21.0833333 L19.453125,5.87239583 Z M52.2239583,10.7994792 L46.6523438,10.2122396 C46.8624142,9.23827638 47.1655796,8.472008 47.561849,7.91341146 C47.9581183,7.35481492 48.5286421,6.87022775 49.2734375,6.45963542 C49.8081624,6.16362699 50.5433981,5.93446262 51.4791667,5.77213542 C52.4149352,5.60980822 53.4270779,5.52864583 54.515625,5.52864583 C56.2630296,5.52864583 57.6666614,5.62651812 58.7265625,5.82226563 C59.7864636,6.01801313 60.6697013,6.42621217 61.3763021,7.046875 C61.8728323,7.47656465 62.2643215,8.08528252 62.5507812,8.87304688 C62.837241,9.66081123 62.9804688,10.4127568 62.9804688,11.1289063 L62.9804688,17.8463542 C62.9804688,18.5625036 63.0258242,19.1234789 63.1165365,19.5292969 C63.2072487,19.9351149 63.4053804,20.4531218 63.7109375,21.0833333 L58.2395833,21.0833333 C58.0199642,20.6918383 57.8767364,20.3934472 57.8098958,20.188151 C57.7430552,19.9828549 57.6762156,19.6605925 57.609375,19.2213542 C56.8454823,19.9566009 56.0863753,20.4817693 55.3320312,20.796875 C54.3007761,21.217016 53.1024374,21.4270833 51.7369792,21.4270833 C49.922734,21.4270833 48.5453606,21.0069486 47.6048177,20.1666667 C46.6642748,19.3263847 46.1940104,18.2903707 46.1940104,17.0585938 C46.1940104,15.903206 46.5329827,14.9531287 47.2109375,14.2083333 C47.8888923,13.4635379 49.1397478,12.909724 50.9635417,12.546875 C53.1501845,12.1076367 54.5681391,11.7996971 55.2174479,11.6230469 C55.8667567,11.4463967 56.5542498,11.2148452 57.2799479,10.9283854 C57.2799479,10.212236 57.1319459,9.71093893 56.8359375,9.42447917 C56.5399291,9.1380194 56.019535,8.99479167 55.2747396,8.99479167 C54.3198737,8.99479167 53.603735,9.14756792 53.1263021,9.453125 C52.7539044,9.69184147 52.4531261,10.1406217 52.2239583,10.7994792 Z M57.2799479,13.8645833 C56.4778606,14.1510431 55.6423655,14.4040788 54.7734375,14.6236979 C53.5894038,14.9388037 52.8398453,15.2491304 52.5247396,15.5546875 C52.2000852,15.8697932 52.0377604,16.2278626 52.0377604,16.6289062 C52.0377604,17.0872419 52.1976981,17.4620211 52.5175781,17.7532552 C52.8374582,18.0444893 53.3077226,18.1901042 53.9283854,18.1901042 C54.5776942,18.1901042 55.1816378,18.0325537 55.7402344,17.7174479 C56.2988309,17.4023422 56.6950943,17.0180144 56.9290365,16.5644531 C57.1629786,16.1108918 57.2799479,15.521271 57.2799479,14.7955729 L57.2799479,13.8645833 Z M64.6992188,5.87239583 L70.15625,5.87239583 L70.15625,8.36458333 C70.6814262,7.28558488 71.2233045,6.54318779 71.781901,6.13736979 C72.3404976,5.73155179 73.0303778,5.52864583 73.8515625,5.52864583 C74.7109418,5.52864583 75.6514706,5.79600427 76.6731771,6.33072917 L74.8684896,10.484375 C74.1809861,10.1979152 73.6367208,10.0546875 73.2356771,10.0546875 C72.4717844,10.0546875 71.8797764,10.3697885 71.4596354,11 C70.8580699,11.8880253 70.5572917,13.549467 70.5572917,15.984375 L70.5572917,21.0833333 L64.6992188,21.0833333 L64.6992188,5.87239583 Z M77.71875,0.0859375 L83.6770833,0.0859375 L83.6770833,10.9140625 L88.03125,5.87239583 L95.2070313,5.87239583 L89.75,11.2005208 L95.5221354,21.0833333 L88.9479167,21.0833333 L85.8684896,14.9817708 L83.6770833,17.1302083 L83.6770833,21.0833333 L77.71875,21.0833333 L77.71875,0.0859375 Z M112.251302,14.9244792 L100.563802,14.9244792 C100.668837,15.8602477 100.921873,16.5572894 101.322917,17.015625 C101.886288,17.6744825 102.621523,18.0039063 103.528646,18.0039063 C104.101565,18.0039063 104.645831,17.8606785 105.161458,17.5742188 C105.476564,17.3927942 105.815536,17.072919 106.178385,16.6145833 L111.921875,17.1445313 C111.043398,18.6723167 109.983513,19.7680088 108.742188,20.4316406 C107.500862,21.0952724 105.720064,21.4270833 103.39974,21.4270833 C101.384973,21.4270833 99.799919,21.143015 98.6445313,20.5748698 C97.4891435,20.0067246 96.5319048,19.1043899 95.7727865,17.8678385 C95.0136681,16.6312872 94.6341146,15.1775257 94.6341146,13.5065104 C94.6341146,11.1288944 95.3956087,9.20486846 96.9186198,7.734375 C98.4416309,6.26388154 100.544691,5.52864583 103.227865,5.52864583 C105.404959,5.52864583 107.123692,5.85806962 108.384115,6.51692708 C109.644538,7.17578454 110.604163,8.13063611 111.263021,9.38151042 C111.921878,10.6323847 112.251302,12.2604066 112.251302,14.265625 L112.251302,14.9244792 Z M106.321615,12.1315104 C106.207031,11.0047687 105.903865,10.1979191 105.412109,9.7109375 C104.920353,9.2239559 104.273442,8.98046875 103.471354,8.98046875 C102.545134,8.98046875 101.805124,9.3480866 101.251302,10.0833333 C100.898002,10.541669 100.673612,11.2243878 100.578125,12.1315104 L106.321615,12.1315104 Z M121.045573,0.0859375 L121.045573,5.87239583 L124.253906,5.87239583 L124.253906,10.1263021 L121.045573,10.1263021 L121.045573,15.5260417 C121.045573,16.1753505 121.107638,16.6050337 121.231771,16.8151042 C121.422744,17.1397586 121.756942,17.3020833 122.234375,17.3020833 C122.664065,17.3020833 123.265621,17.1779526 124.039062,16.9296875 L124.46875,20.9544271 C123.026903,21.2695328 121.680562,21.4270833 120.429688,21.4270833 C118.978291,21.4270833 117.908858,21.2408873 117.221354,20.8684896 C116.533851,20.4960919 116.025392,19.9303423 115.695964,19.171224 C115.366535,18.4121056 115.201823,17.1827342 115.201823,15.4830729 L115.201823,10.1263021 L113.053385,10.1263021 L113.053385,5.87239583 L115.201823,5.87239583 L115.201823,3.07942708 L121.045573,0.0859375 Z" id="xmarket" fill="#FFFFFF"></path>
                <polygon id="Path" fill="#EC7D00" points="0.686482747 5.87239583 7.6044515 5.87239583 10.0250244 10.1119792 12.8323161 5.87239583 18.2424723 5.87239583 18.2424723 7.08869213 14.0784098 13.1197917 18.2424723 19.2411747 18.2424723 21.0833333 12.8323161 21.0833333 10.0250244 16.1848958 6.71643066 21.0833333 0.400024414 21.0833333 5.92867025 13.1197917"></polygon>
                <g id="Group-5" transform="translate(9.833333, 9.000000)">
                    <ellipse id="Oval" fill="#3D4C62" cx="4.29166667" cy="4.29166667" rx="4.04166667" ry="4.04166667"></ellipse>
                    <ellipse id="Oval" fill="#FFFFFF" cx="4.29166667" cy="4.29166667" rx="2.29166667" ry="2.29166667"></ellipse>
                    <rect id="Rectangle-9" fill="#FFFFFF" x="4.75" y="2.91666667" width="7.33333333" height="2.75"></rect>
                </g>
            </g>
        </g>
    </g>
</svg>

<svg width="125" height="22" viewBox="0 0 125 22" xmlns="http://www.w3.org/2000/svg"><title>Group 10</title><g fill="none" fill-rule="evenodd"><path d="M19.453 5.872h5.443v2.22c.783-.926 1.573-1.585 2.37-1.976.798-.392 1.76-.587 2.886-.587 1.213 0 2.173.214 2.88.644.706.43 1.284 1.07 1.732 1.92.917-.994 1.752-1.67 2.507-2.027.754-.358 1.685-.537 2.793-.537 1.633 0 2.907.484 3.824 1.453.917.97 1.375 2.485 1.375 4.548v9.553h-5.844v-8.665c0-.688-.133-1.198-.4-1.533-.392-.525-.88-.787-1.462-.787-.687 0-1.241.248-1.661.744-.42.497-.63 1.294-.63 2.392v7.85h-5.844v-8.38c0-.668-.038-1.122-.115-1.36a1.855 1.855 0 0 0-.644-.924 1.717 1.717 0 0 0-1.074-.351c-.669 0-1.218.253-1.648.76-.43.505-.644 1.336-.644 2.491v7.763h-5.844V5.873zM52.224 10.8l-5.572-.587c.21-.974.514-1.74.91-2.299.396-.558.967-1.043 1.711-1.453.535-.296 1.27-.526 2.206-.688a17.786 17.786 0 0 1 3.037-.243c1.747 0 3.15.098 4.21.293 1.06.196 1.944.604 2.65 1.225.497.43.888 1.038 1.175 1.826.286.788.43 1.54.43 2.256v6.717c0 .717.045 1.277.136 1.683.09.406.288.924.594 1.554H58.24c-.22-.391-.363-.69-.43-.895-.067-.205-.134-.527-.2-.967-.765.736-1.524 1.26-2.278 1.576-1.031.42-2.23.63-3.595.63-1.814 0-3.192-.42-4.132-1.26-.94-.84-1.411-1.877-1.411-3.108 0-1.156.339-2.106 1.017-2.85.678-.745 1.929-1.3 3.753-1.662 2.186-.44 3.604-.747 4.253-.924.65-.177 1.337-.408 2.063-.695 0-.716-.148-1.217-.444-1.504-.296-.286-.816-.43-1.561-.43-.955 0-1.671.154-2.149.46-.372.238-.673.687-.902 1.345zm5.056 3.066c-.802.286-1.638.54-2.507.759-1.184.315-1.933.625-2.248.93-.325.316-.487.674-.487 1.075 0 .458.16.833.48 1.124.32.291.79.437 1.41.437.65 0 1.254-.157 1.812-.473.559-.315.955-.699 1.189-1.153.234-.453.35-1.043.35-1.768v-.931zm7.42-7.993h5.456v2.493c.525-1.08 1.067-1.822 1.626-2.228.558-.405 1.248-.608 2.07-.608.859 0 1.8.267 2.821.802l-1.805 4.153c-.687-.286-1.231-.43-1.632-.43-.764 0-1.356.316-1.776.946-.602.888-.903 2.55-.903 4.984v5.1H64.7V5.871zM77.718.086h5.958v10.828l4.354-5.042h7.176l-5.457 5.329 5.772 9.882h-6.574l-3.08-6.101-2.19 2.148v3.953h-5.96V.086zm34.532 14.838h-11.687c.105.936.358 1.633.759 2.092.563.658 1.299.988 2.206.988.573 0 1.117-.143 1.632-.43.316-.181.655-.501 1.017-.96l5.744.53c-.879 1.528-1.938 2.624-3.18 3.288-1.241.663-3.022.995-5.342.995-2.015 0-3.6-.284-4.755-.852-1.156-.568-2.113-1.47-2.872-2.707-.76-1.237-1.139-2.69-1.139-4.361 0-2.378.762-4.302 2.285-5.773 1.523-1.47 3.626-2.205 6.309-2.205 2.177 0 3.896.33 5.156.988a6.673 6.673 0 0 1 2.879 2.865c.659 1.25.988 2.878.988 4.884v.658zm-5.93-2.792c-.114-1.127-.417-1.934-.909-2.421-.492-.487-1.139-.73-1.94-.73-.927 0-1.667.367-2.22 1.102-.354.459-.578 1.141-.674 2.049h5.744zM121.047.086v5.786h3.208v4.254h-3.208v5.4c0 .65.062 1.079.186 1.29.19.324.525.486 1.002.486.43 0 1.032-.124 1.805-.372l.43 4.024c-1.442.316-2.788.473-4.04.473-1.45 0-2.52-.186-3.208-.559-.687-.372-1.196-.938-1.525-1.697-.33-.759-.494-1.988-.494-3.688v-5.357h-2.149V5.872h2.149V3.08l5.844-2.993z" fill="#FFF"/><path fill="#EC7D00" d="M.686 5.872h6.918l2.421 4.24 2.807-4.24h5.41V7.09l-4.164 6.03 4.164 6.122v1.842h-5.41l-2.807-4.898-3.309 4.898H.4l5.529-7.963z"/><g transform="translate(9.833 9)"><ellipse fill="#3D4C62" cx="4.292" cy="4.292" rx="4.042" ry="4.042"/><ellipse fill="#FFF" cx="4.292" cy="4.292" rx="2.292" ry="2.292"/><path fill="#FFF" d="M4.75 2.917h7.333v2.75H4.75z"/></g></g></svg>
